svg/OSM-icons/shop #ac39ac °ffffff !label=enshops,deLäden/29201;shop=video_games;!name=;[shop];!label=envideo games,deVideospiele.svg

<svg xmlns="http://www.w3.org/2000/svg" viewBox="0 0 580 580" enable-background="new 0 0 580 580"><path fill="#111" stroke="#eee" stroke-width="3.408" d="m66.28 1.768c-41.34 0-64.57 21.371-64.57 65.04v450.12c0 40.844 20.895 62.23 62.19 62.23h452.02c41.31 0 62.23-20.315 62.23-62.23v-450.12c0-42.602-20.923-65.04-63.52-65.04-.003 0-448.5-.143-448.35 0z"/><g fill="#fff"><path d="m412.64 369.84c-5.094 0-10.08.459-14.933 1.293h-215.41c-4.855-.834-9.839-1.293-14.933-1.293-48.38 0-87.6 39.22-87.6 87.6s39.22 87.6 87.6 87.6c34.26 0 63.903-19.676 78.3-48.33h88.67c14.4 28.656 44.05 48.33 78.3 48.33 48.38 0 87.6-39.22 87.6-87.6s-39.22-87.6-87.6-87.6m-208.89 99.94h-26.686v26.686c0 6.811-5.522 12.332-12.337 12.332-6.811 0-12.334-5.521-12.334-12.332v-26.686h-26.682c-6.814 0-12.337-5.523-12.337-12.336 0-6.809 5.522-12.331 12.337-12.331h26.682v-26.686c0-6.812 5.523-12.334 12.334-12.334 6.814 0 12.337 5.522 12.337 12.334v26.686h26.686c6.809 0 12.33 5.522 12.33 12.331 0 6.813-5.522 12.336-12.33 12.336m180.89 1.761c-7.785 0-14.1-6.31-14.1-14.1s6.311-14.1 14.1-14.1c7.784 0 14.1 6.31 14.1 14.1s-6.311 14.1-14.1 14.1m31.718 31.718c-7.785 0-14.1-6.311-14.1-14.09 0-7.787 6.31-14.1 14.1-14.1 7.784 0 14.1 6.308 14.1 14.1 0 7.783-6.311 14.09-14.1 14.09m0-63.44c-7.785 0-14.1-6.311-14.1-14.09 0-7.785 6.31-14.1 14.1-14.1 7.784 0 14.1 6.311 14.1 14.1 0 7.783-6.311 14.09-14.1 14.09m31.717 31.718c-7.785 0-14.1-6.31-14.1-14.1s6.31-14.1 14.1-14.1 14.1 6.31 14.1 14.1-6.31 14.1-14.1 14.1"/><path d="m126.97 331.45h326.05c17.755 0 32.2-14.445 32.2-32.2v-232.1c0-17.756-14.444-32.2-32.2-32.2h-326.05c-17.755 0-32.2 14.444-32.2 32.2v232.1c0 17.754 14.445 32.2 32.2 32.2m.144-264.16h325.76v231.81h-325.76v-231.81"/></g></svg>

<?xml version="1.0" encoding="utf-8"?>
<!-- Generator: Adobe Illustrator 15.0.0, SVG Export Plug-In . SVG Version: 6.00 Build 0)  -->
<!DOCTYPE svg PUBLIC "-//W3C//DTD SVG 1.1//EN" "http://www.w3.org/Graphics/SVG/1.1/DTD/svg11.dtd">
<svg version="1.1" xmlns="http://www.w3.org/2000/svg" xmlns:xlink="http://www.w3.org/1999/xlink" x="0px" y="0px" width="580px"
	 height="580px" viewBox="0 0 580 580" enable-background="new 0 0 580 580" xml:space="preserve">
<g id="Layer_1">
	<g id="Layer_2">
		<g id="g1327">
			<path id="path1329" fill="#111111" stroke="#EEEEEE" stroke-width="3.408" d="M66.275,1.768
				c-41.335,0-64.571,21.371-64.571,65.036v450.123c0,40.844,20.895,62.229,62.192,62.229h452.024
				c41.307,0,62.229-20.315,62.229-62.229V66.804c0-42.602-20.923-65.036-63.521-65.036C514.625,1.768,66.133,1.625,66.275,1.768z"
				/>
		</g>
	</g>
</g>
<g id="Layer_2_1_">
	<g>
		<path fill="#FFFFFF" d="M412.636,369.844c-5.094,0-10.078,0.459-14.933,1.293H182.297c-4.855-0.834-9.839-1.293-14.933-1.293
			c-48.382,0-87.602,39.219-87.602,87.602s39.22,87.602,87.602,87.602c34.259,0,63.903-19.676,78.303-48.332h88.666
			c14.4,28.656,44.045,48.332,78.304,48.332c48.381,0,87.601-39.219,87.601-87.602S461.017,369.844,412.636,369.844z
			 M203.751,469.78h-26.686v26.686c0,6.811-5.522,12.332-12.337,12.332c-6.811,0-12.334-5.521-12.334-12.332V469.78h-26.682
			c-6.814,0-12.337-5.523-12.337-12.336c0-6.809,5.522-12.331,12.337-12.331h26.682v-26.686c0-6.812,5.523-12.334,12.334-12.334
			c6.814,0,12.337,5.522,12.337,12.334v26.686h26.686c6.809,0,12.33,5.522,12.33,12.331
			C216.081,464.257,210.559,469.78,203.751,469.78z M384.645,471.541c-7.785,0-14.096-6.31-14.096-14.095
			s6.311-14.095,14.096-14.095c7.784,0,14.095,6.31,14.095,14.095S392.429,471.541,384.645,471.541z M416.363,503.259
			c-7.785,0-14.095-6.311-14.095-14.094c0-7.787,6.31-14.095,14.095-14.095c7.784,0,14.095,6.308,14.095,14.095
			C430.458,496.948,424.147,503.259,416.363,503.259z M416.363,439.823c-7.785,0-14.095-6.311-14.095-14.094
			c0-7.785,6.31-14.096,14.095-14.096c7.784,0,14.095,6.311,14.095,14.096C430.458,433.512,424.147,439.823,416.363,439.823z
			 M448.08,471.541c-7.785,0-14.095-6.31-14.095-14.095s6.31-14.095,14.095-14.095s14.095,6.31,14.095,14.095
			S455.865,471.541,448.08,471.541z"/>
		<path fill="#FFFFFF" d="M126.974,331.452h326.052c17.755,0,32.199-14.445,32.199-32.199V67.152c0-17.756-14.444-32.2-32.199-32.2
			H126.974c-17.755,0-32.2,14.444-32.2,32.2v232.101C94.774,317.007,109.219,331.452,126.974,331.452z M127.118,67.296h325.763
			v231.813H127.118L127.118,67.296z"/>
	</g>
</g>
</svg>
